X:1
T:These foolish things
C:J.Strachey & H.Link
M:4/4
L:1/8
Q:1/4=60
K:Eb
P:A
"Eb6"zEFG "Cm7"FECE | "Fm7"G2G2 "Bb7"GF3 | "Eb6"zEFG "Cm7"FECE | "Fm7"c2c2 "Bb7"cB3 |
"Bbm7"zBcB "A7"e2ee- | "Abmaj7"e4 "Gm7b5"(3G2A2"C7"B2 | "F7"c3C (3C2E2G2 | "Fm7 Bb7"F8 ||
P:A
"Eb6"zEFG "Cm7"FECE | "Fm7"G2G2 "Bb7"GF3 | "Eb6"zEFG "Cm7"FECE | "Fm7"c2c2 "Bb7"cB3 |
"Bbm7"zBcB "A7"e2ee- | "Abmaj7"e4 "Gm7b5"(3G2A2"C7"B2 | "F7"c3C "Bb7"(3C2E2G2 | "Eb6 D7"E8 ||
P:B
"Gm6"z2B2"Em7b5"G4 | "Am7b5"z2c2"D7"=A4- | "Gm"A2B2"-/F"c2d2 | "Em7b5 Ebm6"d8 |
"Dm7"z2d2"Gm7"c2B2 | "Cm7"cdc2- "F7"c2F2 | "Fm7"B2B2"Edim7"B2=A2 | "Fm7"_A2B2"Bb7"A4 ||
P:A
"Eb6"zEFG "Cm7"FECE | "Fm7"G2G2 "Bb7"GF3 | "Eb6"zEFG "Cm7"FECE | "Fm7"c2c2 "Bb7"cB3 |
"Bbm7"zBcB "A7"e2ee- | "Abmaj7"e4 "Gm7b5"(3G2A2"C7"B2 | "F7"c3C "Bb7"(3C2E2G2 | "Eb (T.A.)"E8 |]
